assets/symbols/icons/Frame 1.svg

<?xml version="1.0" encoding="UTF-8" standalone="no"?>
<svg
   width="24"
   height="24"
   viewBox="0 0 24 24"
   fill="none"
   version="1.1"
   id="svg1"
   xmlns="http://www.w3.org/2000/svg"
   xmlns:svg="http://www.w3.org/2000/svg">
  <defs
     id="defs1" />
  <path
     d="m 13.1701,18.0954 c -0.5506,0.1041 -1.1098,0.1563 -1.6701,0.1559 -3.98858,0 -7.36435,-2.6214 -8.5,-6.235 0.30575,-0.9725 0.77669,-1.8852 1.39217,-2.6979 m 5.21775,0.8088 C 10.1111,9.626 10.7908,9.34445 11.4996,9.34445 c 0.7087,0 1.3884,0.28155 1.8896,0.78275 0.5011,0.5011 0.7827,1.1808 0.7827,1.8896 0,0.7087 -0.2816,1.3885 -0.7827,1.8896 m -3.77928,-3.7792 3.77928,3.7792 m -3.77928,-3.7792 3.77838,3.7774 m 9e-4,0.0018 2.9313,2.9304 M 9.61171,10.1281 6.68129,7.19763 m 0,0 L 3.48365,4 M 6.68129,7.19763 C 8.11742,6.27091 9.79082,5.7791 11.5,5.78141 c 3.9886,0 7.3644,2.62135 8.5,6.23489 -0.627,1.9867 -1.9289,3.6916 -3.6804,4.8197 M 6.68129,7.19763 16.3196,16.836 m 0,0 3.1967,3.1967"
     stroke="#a3a3a3"
     stroke-width="1.5"
     stroke-linecap="round"
     stroke-linejoin="round"
     id="path1"
     style="fill:none;stroke-width:1.5;stroke-dasharray:none" />
</svg>

<svg width="24" height="24" viewBox="0 0 24 24" fill="none" xmlns="http://www.w3.org/2000/svg">
<path d="M13.1701 18.0954C12.6195 18.1995 12.0603 18.2517 11.5 18.2513C7.51142 18.2513 4.13565 15.6299 3 12.0163C3.30575 11.0438 3.77669 10.1311 4.39217 9.3184M9.60992 10.1272C10.1111 9.626 10.7908 9.34445 11.4996 9.34445C12.2083 9.34445 12.888 9.626 13.3892 10.1272C13.8903 10.6283 14.1719 11.308 14.1719 12.0168C14.1719 12.7255 13.8903 13.4053 13.3892 13.9064M9.60992 10.1272L13.3892 13.9064M9.60992 10.1272L13.3883 13.9046M13.3892 13.9064L16.3205 16.8368M9.61171 10.1281L6.68129 7.19763M6.68129 7.19763L3.48365 4M6.68129 7.19763C8.11742 6.27091 9.79082 5.7791 11.5 5.78141C15.4886 5.78141 18.8644 8.40276 20 12.0163C19.373 14.003 18.0711 15.7079 16.3196 16.836M6.68129 7.19763L16.3196 16.836M16.3196 16.836L19.5163 20.0327" stroke="#A3A3A3" stroke-width="1.5" stroke-linecap="round" stroke-linejoin="round"/>
</svg>
